X: 01
M: 6/8
L: 1/8
K: F#m
V: 1
|:\
|:\
d>Bd c>Ac | B>GB AFD | C>DE EGA | (f>ac) [B3E3] |\
d>Bd c>Ac | B>GB AFD | a>ec ecA | TB3 A3 :|
|:\
e2c [f2A2D2]a | .e.c.A .e.c.A | e2c [f2A2D2]a | ecA [B3E3] |\
e2c [f2A2D2]a | agf ecA | d>ef d>ac | TB3 A3 :|
V: 2 clef=bass middle=d
|:\
d2e f2g | a2A c2A | d2e f2g | a3 =gfe | d2e f2^g | a3 d3 | c3 A3 | e3 A3 :|
|:\
b2g a2A | d3 c2B | A3 a3 | A3 e3 | b2g a2A | e2d c2B | A3 c3 | e3 A3 :|
|:\


